X: 3175
T: Bedford Cross
R: slide
M: 12/8
K: Dmajor
|:A3 AGA B2A G2B|AGE G2E D2E F2G|
A3 A^GA B2A G2B|AGE G2E D3 D3:|
|:d2c A2B =c2A G2e|d2c A2B =cBc e3|
d2c A2B =c2A G2B|AGE G2E D3 D3:|

